src/images_karasa_jaga_svg/cmd/sc_underline.svg

<svg height="16" viewBox="0 0 4.2333333 4.2333335" width="16" xmlns="http://www.w3.org/2000/svg" xmlns:xlink="http://www.w3.org/1999/xlink"><linearGradient id="a" gradientUnits="userSpaceOnUse" x1="16.933332" x2="21.166664" y1="-2.116665" y2="23.283333"><stop offset="0" stop-color="#3b3e22"/><stop offset="1" stop-color="#454545" stop-opacity="0"/></linearGradient><linearGradient id="b" gradientUnits="userSpaceOnUse" x1="14.928053" x2="16.08827" y1="29.901336" y2="3.216366"><stop offset="0" stop-color="#555"/><stop offset="1"/></linearGradient><g transform="scale(.125)"><rect fill="#010101" height="2.116667" rx=".472075" ry=".607224" stroke-width=".264583" width="33.866669" x=".000002" y="31.75"/><path d="m9.9231831 19.822256c.01463 2.707121.5008269 4.76462 1.5024799 6.172349 1.028725 1.380657 2.856065 2.070986 5.482021 2.070986 1.516015 0 2.559326-.303238 3.777552-.871744 1.218227-.595577 2.098057-1.380656 2.639491-2.355238.62265-1.164084.950189-3.005025.933974-5.522629l-.068171-10.58435c-.013077-2.0303257-.243645-3.3704275-.730936-4.0201484-.48729-.6767927-1.516015-1.0693324-3.086174-1.1776192v-.7715436h9.420954v.7715436c-1.678446.2165736-2.734242.6226492-3.16739 1.2182268-.433147.5955775-.663446 1.9221479-.649721 3.9795408l.06817 10.218882c.01065 1.597186-.148894 2.991424-.446683 4.182579-.270717 1.191156-.771544 2.328167-1.50248 3.411035-.703864 1.055797-1.773196 1.867948-3.207997 2.436454-1.407728.568506-2.830043.871743-4.914564.871743-3.465179 0-6.0369912-.839223-7.7154369-2.517668-1.6513731-1.705518-2.4575391-4.318006-2.4770601-7.837259l-.0681706-12.2898688c-.0082589-1.4889154-.2165736-2.4364535-.6497209-2.8425291-.4060756-.4060756-1.4077287-.6767927-3.0049594-.8121512v-.7715436h11.4919389v.7715436c-1.624302.1353585-2.653027.4196114-3.086174.8527587-.406076.4060756-.6170134 1.340076-.6091135 2.8019216z" fill="url(#b)" stroke-width=".964705" transform="matrix(1.0525265 0 0 .94486719 .215254 .01454)"/><path d="m23.791016 12.154297c.02447.02071.02268.04953.04687.07031.02351.02093.05272.0218.07617.04297zm75.09375 1.935547c.01187.01428.01164.03452.02344.04883.01016.01264.02894.01661.03906.0293zm-73.462891.722656c1.97635 3.048576 2.650391 6.542392 2.650391 11.066406v42.892578a95.99999 44.000002 0 0 0 5.787109.966797v-43.859375c0-4.540175.603819-8.005752 2.595703-11.066406zm73.789063 0c.868262 1.17126 1.278612 2.591928 1.771482 3.955078.46891-1.352498.81727-2.773954 1.69336-3.955078z" fill="url(#a)" transform="matrix(.26458334 0 0 .26312754 .215254 .01454)"/></g></svg>

<?xml version="1.0" encoding="UTF-8" standalone="no"?>
<svg
   xmlns:dc="http://purl.org/dc/elements/1.1/"
   xmlns:cc="http://creativecommons.org/ns#"
   xmlns:rdf="http://www.w3.org/1999/02/22-rdf-syntax-ns#"
   xmlns:svg="http://www.w3.org/2000/svg"
   xmlns="http://www.w3.org/2000/svg"
   xmlns:xlink="http://www.w3.org/1999/xlink"
   xmlns:sodipodi="http://sodipodi.sourceforge.net/DTD/sodipodi-0.dtd"
   xmlns:inkscape="http://www.inkscape.org/namespaces/inkscape"
   height="128"
   viewBox="0 0 33.866666 33.866668"
   width="128"
   version="1.1"
   id="svg20"
   sodipodi:docname="sc_underline.svg"
   inkscape:version="0.92.2 (unknown)"
   inkscape:export-filename="/home/rizmut/Dokumen/Rizmut/Github/libreoffice-style-karasa-jaga/build/images_karasa_jaga/cmd/sc_underline.png"
   inkscape:export-xdpi="12"
   inkscape:export-ydpi="12">
  <metadata
     id="metadata26">
    <rdf:RDF>
      <cc:Work
         rdf:about="">
        <dc:format>image/svg+xml</dc:format>
        <dc:type
           rdf:resource="http://purl.org/dc/dcmitype/StillImage" />
        <dc:title />
      </cc:Work>
    </rdf:RDF>
  </metadata>
  <defs
     id="defs24">
    <linearGradient
       inkscape:collect="always"
       xlink:href="#b"
       id="linearGradient842"
       x1="63.999996"
       y1="-7.9999943"
       x2="79.999992"
       y2="88"
       gradientUnits="userSpaceOnUse" />
  </defs>
  <sodipodi:namedview
     pagecolor="#ffffff"
     bordercolor="#666666"
     borderopacity="1"
     objecttolerance="10"
     gridtolerance="10"
     guidetolerance="10"
     inkscape:pageopacity="0"
     inkscape:pageshadow="2"
     inkscape:window-width="1366"
     inkscape:window-height="706"
     id="namedview22"
     showgrid="true"
     inkscape:zoom="3.6875001"
     inkscape:cx="26.371041"
     inkscape:cy="49.749057"
     inkscape:window-x="0"
     inkscape:window-y="0"
     inkscape:window-maximized="1"
     inkscape:current-layer="svg20"
     inkscape:snap-global="false">
    <inkscape:grid
       type="xygrid"
       id="grid825"
       spacingx="1.0583333"
       spacingy="1.0583333"
       empspacing="2" />
  </sodipodi:namedview>
  <linearGradient
     id="a"
     gradientUnits="userSpaceOnUse"
     x1="18.98182359615"
     x2="20.2029811282"
     y1="294.720546641"
     y2="266.6339107115"
     gradientTransform="matrix(0.95009478,0,0,0.95009478,-3.1064784,-250.11112)">
    <stop
       offset="0"
       stop-color="#555"
       id="stop2" />
    <stop
       offset="1"
       id="stop4" />
  </linearGradient>
  <linearGradient
     id="b"
     gradientUnits="userSpaceOnUse"
     x1="35.404884"
     x2="54.657333"
     y1="7.324325"
     y2="81.814293"
     gradientTransform="scale(0.26458333)">
    <stop
       offset="0"
       stop-color="#3b3e22"
       id="stop7" />
    <stop
       offset="1"
       stop-color="#454545"
       stop-opacity="0"
       id="stop9" />
  </linearGradient>
  <rect
     x="1.7011719e-06"
     style="fill:#010101;stroke-width:0.26458335"
     height="2.1166668"
     rx="0.47207487"
     ry="0.60722405"
     width="33.866669"
     y="31.75"
     id="rect13" />
  <g
     id="g847"
     transform="matrix(1,0,0,0.99449776,0.21525424,0.01453969)">
    <g
       aria-label="U"
       transform="scale(1.0525265,0.95009484)"
       style="font-size:38.58823776px;font-family:sans-serif;letter-spacing:0;word-spacing:0;fill:url(#a);stroke-width:0.96470535"
       id="text14">
      <path
         d="m 9.9231831,19.822256 c 0.01463,2.707121 0.5008269,4.76462 1.5024799,6.172349 1.028725,1.380657 2.856065,2.070986 5.482021,2.070986 1.516015,0 2.559326,-0.303238 3.777552,-0.871744 1.218227,-0.595577 2.098057,-1.380656 2.639491,-2.355238 0.62265,-1.164084 0.950189,-3.005025 0.933974,-5.522629 L 24.19053,8.73163 C 24.177453,6.7013043 23.946885,5.3612025 23.459594,4.7114816 22.972304,4.0346889 21.943579,3.6421492 20.37342,3.5338624 V 2.7623188 h 9.420954 V 3.5338624 C 28.115928,3.750436 27.060132,4.1565116 26.626984,4.7520892 26.193837,5.3476667 25.963538,6.6742371 25.977263,8.73163 l 0.06817,10.218882 c 0.01065,1.597186 -0.148894,2.991424 -0.446683,4.182579 -0.270717,1.191156 -0.771544,2.328167 -1.50248,3.411035 -0.703864,1.055797 -1.773196,1.867948 -3.207997,2.436454 -1.407728,0.568506 -2.830043,0.871743 -4.914564,0.871743 -3.465179,0 -6.0369912,-0.839223 -7.7154369,-2.517668 C 6.606899,25.629137 5.800733,23.016649 5.781212,19.497396 L 5.7130414,7.2075272 C 5.7047825,5.7186118 5.4964678,4.7710737 5.0633205,4.3649981 4.6572449,3.9589225 3.6555918,3.6882054 2.0583611,3.5528469 V 2.7813033 H 13.5503 V 3.5528469 C 11.925998,3.6882054 10.897273,3.9724583 10.464126,4.4056056 10.05805,4.8116812 9.8471126,5.7456816 9.8550125,7.2075272 Z"
         style="font-style:normal;font-variant:normal;font-weight:normal;font-stretch:normal;font-size:40.6075592px;font-family:FreeSerif;-inkscape-font-specification:FreeSerif;fill:url(#a);stroke-width:0.96470535"
         id="path824"
         inkscape:connector-curvature="0"
         sodipodi:nodetypes="scsccsscccccssscccscsscccccsss" />
    </g>
    <path
       id="path827"
       transform="scale(0.26458334)"
       d="m 23.791016,12.154297 c 0.02447,0.02071 0.02268,0.04953 0.04687,0.07031 0.02351,0.02093 0.05272,0.0218 0.07617,0.04297 z m 75.09375,1.935547 c 0.01187,0.01428 0.01164,0.03452 0.02344,0.04883 0.01016,0.01264 0.02894,0.01661 0.03906,0.0293 z M 25.421875,14.8125 c 1.97635,3.048576 2.650391,6.542392 2.650391,11.066406 v 42.892578 a 95.99999,44.000002 0 0 0 5.787109,0.966797 V 25.878906 c 0,-4.540175 0.603819,-8.005752 2.595703,-11.066406 z m 73.789063,0 c 0.868262,1.17126 1.278612,2.591928 1.771482,3.955078 0.46891,-1.352498 0.81727,-2.773954 1.69336,-3.955078 z"
       style="opacity:1;fill:url(#linearGradient842);fill-opacity:1;stroke:none;stroke-width:8;stroke-linecap:round;stroke-linejoin:round;stroke-miterlimit:4;stroke-dasharray:none;stroke-dashoffset:0;stroke-opacity:1"
       inkscape:connector-curvature="0" />
  </g>
</svg>
